!!!!SEGMENT:pl-kk--kk-i-382--044_kreutzer-o-deus-salva-me.krn
!!!id: 18xx:1543
!!!COM: Kreutzer
!!!OTL: O deus salva me
!!!PDT:
!!!SMS-siglum: PL-Kk
!!!SMS-shelfmark: Kk.I.382
!!!NIFC-rismID: 1001140394
!!!URL-scan: http://repozytorium.nifc.pl/skany/pl-kk-nut--i-382
!!!ONB-nifc: UWAGA: obsada: S (T 1), A (B 1), T 2, B 2; S (T 1): skan 0036-0037, A (B 1): 0181, T 2: skan 0128, B 2: skan 0257
!!!SMS-variant:
!!!SMS-altvar:
**kern	**text	**dynam	**kern	**text	**dynam	**kern	**text	**dynam	**kern	**text	**dynam
*part4	*part4	*part4	*part2	*part2	*part2	*part3	*part3	*part3	*part1	*part1	*part1
*staff4	*staff4	*	*staff2	*staff2	*	*staff3	*staff3	*	*staff1	*staff1	*
*I"Basso II	*	*	*I"Tenore II	*	*	*I"Alto vel Basso I	*	*	*I"Soprano vel Tenore I.	*	*
*I'B 2	*	*	*I'T 2	*	*	*I'A (B 1)	*	*	*I'S (T 1)	*	*
*clefF4	*	*	*clefG2	*	*	*clefF4	*	*	*clefG2	*	*
*k[]	*	*	*k[]	*	*	*k[]	*	*	*k[]	*	*
*M4/4	*	*	*M4/4	*	*	*M4/4	*	*	*M4/4	*	*
*met(c)	*	*	*met(c)	*	*	*met(c)	*	*	*met(c)	*	*
!LO:TX:a:i:t=Maestoso	!	!LO:DY:a:rj	!LO:TX:a:i:t=Maestoso	!	!LO:DY:a:rj	!LO:TX:a:i:t=Maestoso.	!	!LO:DY:a:rj	!LO:TX:a:i:t=Maestoso	!	!LO:DY:a:rj
!	!	!	!LO:TX:t=P:problem:all\right:global	!	!	!LO:TX:t=P:problem:all\right:global	!	!	!LO:TX:t=P:problem:all\right:global	!	!
4C/	O	ff	4cc\	O	ff	4G\	O	ff	4ee\	O	ff
=1	=1	=1	=1	=1	=1	=1	=1	=1	=1	=1	=1
!LO:TX:t=P:problem:all\right:global	!	!	!	!	!	!	!	!	!	!	!
4.E\	De-	.	4.cc\	De-	.	4.G\	De-	.	4.cc\	De-	.
8E\	-us	.	8cc\	-us	.	8G\	-us	.	8cc\	-us	.
4D\	sal-	.	4b\	sal-	.	4G\	sal-	.	4dd\	sal-	.
4C/	-va	.	4cc\	-va	.	4G\	-va	.	4ee\	-va	.
=2	=2	=2	=2	=2	=2	=2	=2	=2	=2	=2	=2
*2\right	*	*	*2\right	*	*	*2\right	*	*	*2\right	*	*
2.F;>\	me	.	2.cc;>\	me	.	2.A\	me,	.	2.ff;>\	me	.
!	!	!LO:DY:a:rj	!	!	!LO:DY:a:rj	!	!	!LO:DY:a:rj	!	!	!LO:DY:a:rj
4C/	O	p	4cc\	O	p	4G\	O	p	4ee\	O	p
!	!	!	!	!	!	!LO:LB:g=original	!	!	!	!	!
=3	=3	=3	=3	=3	=3	=3	=3	=3	=3	=3	=3
4.F\	De-	.	4.cc\	De-	.	4.A\	De-	.	4.dd\	De-	.
8F\	-us	.	8cc\	-us	.	8A\	-us	.	8dd\	-us	.
4G\	sal-	.	4cc\	sal-	.	4G\	sal-	.	4ee\	sal-	.
4GG/	-va	.	4cc\	-va	.	8G\L	-va	.	4dd\	-va	.
.	.	.	.	.	.	8F\J	.	.	.	.	.
=4	=4	=4	=4	=4	=4	=4	=4	=4	=4	=4	=4
1C;>	me.	.	1g;>	me	.	1E;>	me	.	1cc;>	me	.
!LO:LB:g=original	!	!	!LO:LB:g=original	!	!	!	!	!	!LO:LB:g=original	!	!
=5	=5	=5	=5	=5	=5	=5	=5	=5	=5	=5	=5
!	!	!	!LO:TX:a:t=1	!	!	!LO:TX:a:t=1	!	!	!LO:TX:a:t=1	!	!
!	!	!	!LO:TX:a:t=P:problem:belka jako pauza	!	!	!LO:TX:a:t=P:problem:belka jako pauza	!	!	!LO:TX:a:t=P:problem:belka jako pauza	!	!
2r	.	.	1r	.	.	1r	.	.	1r	.	.
!LO:TX:i:a:t=Solo	!	!	!	!	!	!	!	!	!	!	!
!LO:TX:a:t=P:problem:napis "Solo" dopisany ołówkiem	!	!	!	!	!	!	!	!	!	!	!
8r	.	.	.	.	.	.	.	.	.	.	.
8E\	In	.	.	.	.	.	.	.	.	.	.
8.E\	so-	.	.	.	.	.	.	.	.	.	.
16E\	-li-	.	.	.	.	.	.	.	.	.	.
=6	=6	=6	=6	=6	=6	=6	=6	=6	=6	=6	=6
[<1E	-tu-	.	2r	.	.	2r	.	.	2r	.	.
.	.	.	8r	.	.	8r	.	.	8r	.	.
.	.	.	8b\	in	.	8G#X\	in	.	8ee\	in	.
.	.	.	8.b\	so-	.	8.G#\	so-	.	8.ee\	so-	.
.	.	.	16b\	-li-	.	16G#\	-li-	.	16ee\	-li-	.
=7	=7	=7	=7	=7	=7	=7	=7	=7	=7	=7	=7
4E\]	.	.	4.dd\	-tu-	.	4.B\	-tu-	.	4.ee\	-tu-	.
4r	.	.	.	.	.	.	.	.	.	.	.
.	.	.	8dd\	-di-	.	8B\	-di-	.	8ee\	-di-	.
8r	.	.	4cc\	-ne	.	4A\	-ne	.	4ee\	-ne	.
8E\	-di-	.	.	.	.	.	.	.	.	.	.
8E\	-ne	.	4b\	me-	.	4G#X\	me-	.	4ee\	me-	.
8E\	me-	.	.	.	.	.	.	.	.	.	.
!	!	!	!	!	!	!LO:LB:g=original	!	!	!	!	!
=8	=8	=8	=8	=8	=8	=8	=8	=8	=8	=8	=8
2AA/	-a	.	2cc\	-a	.	2A\	-a	.	2ee\	-a	.
4r	.	.	4r	.	.	4r	.	.	4r	.	.
8A\L	cla-	.	4cc^>\	cla-	.	4A\	cla-	.	4ee\	cla-	.
8G\J	.	.	.	.	.	.	.	.	.	.	.
!LO:LB:g=original	!	!	!LO:LB:g=original	!	!	!	!	!	!LO:PB:g=original	!	!
=9	=9	=9	=9	=9	=9	=9	=9	=9	=9	=9	=9
4.F#X\	-ma-	.	4.cc^>\	-ma-	.	4.A\	-ma-	.	4.dd\	-ma-	.
!	!	!	!	!	!	!	!	!	!LO:SIC:v:s=lub 8dd	!	!
8F#\	-vi	.	8cc\	-vi	.	8A\	-vi	.	8ee\	-vi	.
8F#\	ad	.	8cc\	ad	.	8A\	ad	.	8dd\	ad	.
8F#\	te	.	8cc\	Te	.	8A\	te	.	8dd\	Te	.
8F#\	Do-	.	8cc\	Do-	.	8A\	Do-	.	8ee\	Do-	.
8F#\	-mi-	.	8cc\	-mi-	.	8A\	-mi-	.	8dd\	-mi-	.
=10	=10	=10	=10	=10	=10	=10	=10	=10	=10	=10	=10
4G\	-ne	.	4b\	-ne	.	4G\	-ne	.	4dd\	-ne	.
!	!	!LO:DY:a	!	!	!	!	!	!LO:DY:a:rj	!	!	!
8r	.	pp	8r	.	.	8r	.	pp	8r	.	.
!	!	!	!	!	!LO:DY:a:rj	!	!	!	!	!	!LO:DY:a:rj
8G\	cla-	.	8b\	cla-	pp	8G\	cla-	.	8dd\	cla-	pp
8F#X\	-ma-	.	8cc\	-ma-	.	8A\	-ma-	.	8dd\	-ma-	.
8F#\	-vi	.	8cc\	-vi	.	8A\	-vi	.	8dd\	-vi	.
4r	.	.	4r	.	.	4r	.	.	4r	.	.
=11	=11	=11	=11	=11	=11	=11	=11	=11	=11	=11	=11
8G\	ad	.	8b\	ad	.	8G\	ad	.	8dd\	ad	.
8G\	te	.	8b\	Te	.	8G\	Te	.	8dd\	te	.
4r	.	.	4r	.	.	4r	.	.	4r	.	.
8D\	ad	.	8cc\	ad	.	8F#X\	ad	.	8dd\	ad	.
8D\	te	.	8cc\	Te	.	8F#\	te	.	8dd\	Te	.
8D\	do-	.	8a/	Do-	.	8F#\	Do-	.	8ee\	Do-	.
8D\	-mi-	.	8a/	-mi-	.	8F#\	-mi-	.	8dd\	-mi-	.
!LO:LB:g=original	!	!	!LO:LB:g=original	!	!	!LO:LB:g=original	!	!	!LO:LB:g=original	!	!
=12	=12	=12	=12	=12	=12	=12	=12	=12	=12	=12	=12
2GG/	-ne	.	2g/	-ne	.	2G\	-ne,	.	2b\	-ne	.
2r	.	.	4r	.	.	2r	.	.	4r	.	.
!	!	!	!	!	!	!	!	!	!LO:TX:i:a:t=Solo:rj	!	!LO:DY:a
.	.	.	4r	.	.	.	.	.	4g/	in-	pp
=13	=13	=13	=13	=13	=13	=13	=13	=13	=13	=13	=13
2r	.	.	2r	.	.	2r	.	.	4.ee\	-ten-	.
.	.	.	.	.	.	.	.	.	8cc\	-de	.
4r	.	.	4r	.	.	4r	.	.	4b\	vo-	.
!LO:TX:i:a:t=Soli	!	!LO:DY:a:rj	!	!	!	!	!	!	!	!	!
4G\	In-	p	4g/	in-	.	4B\	in-	.	4g/	-ci	.
=14	=14	=14	=14	=14	=14	=14	=14	=14	=14	=14	=14
4C/	-ten-	.	4ee\	-ten-	.	4c\	-ten-	.	[>1cc	meae	.
4C/	-de	.	4ff\	-de	.	4A\	-de	.	.	.	.
4r	.	.	4ee\	vo-	.	4G\	vo-	.	.	.	.
8C/	vo-	.	4dd\	-ci	.	4F\	-ci	.	.	.	.
8C/	-ci	.	.	.	.	.	.	.	.	.	.
=15	=15	=15	=15	=15	=15	=15	=15	=15	=15	=15	=15
!	!	!	!	!	!	!	!	!	!	!	!LO:HP:a
4C/	me-	.	(<4cc\	me-	.	(<4E\	me-	.	1cc_>	.	<
4C/	-ae	.	4a/)	-ae	.	4F\)	-ae	.	.	.	.
!	!	!	!	!	!	!	!	!LO:HP:a	!	!	!
4r	.	.	4g/	vo-	.	4E\	vo-	<	.	.	.
8.C/	vo-	.	4f/	-ci	.	4D/	-ci	.	.	.	.
16C/	-ci	.	.	.	.	.	.	.	.	.	.
=16	=16	=16	=16	=16	=16	=16	=16	=16	=16	=16	=16
!	!	!LO:HP:a	!	!	!	!	!	!	!	!	!
(<4C/	me-	<	(<2g/	me-	.	(<2E\	meae	.	2.cc\]	.	[[
4BB-X/	.	[[	.	.	.	.	.	.	.	.	.
4AA/)	-ae	.	4a/)	-ae	.	4F\)	.	[	.	.	.
!	!	!LO:DY:a:rj	!	!	!LO:DY:a:rj	!	!	!LO:DY:a:rj	!	!	!LO:DY:a:rj
4GG/	a-	ff	4b-X\	a-	ff	4E\	a-	ff	4cc\	a-	ff
!LO:LB:g=original	!	!	!LO:LB:g=original	!	!	!LO:LB:g=original	!	!	!	!	!
=17	=17	=17	=17	=17	=17	=17	=17	=17	=17	=17	=17
1FF	-do-	.	1a	-do-	.	1F	-do-	.	1cc	-do-	.
=18	=18	=18	=18	=18	=18	=18	=18	=18	=18	=18	=18
1BB-X	-rans	.	1b-X	-rans	.	1F	-rans	.	1dd	-rans	.
!	!	!	!	!	!	!	!	!	!LO:LB:g=original	!	!
=19	=19	=19	=19	=19	=19	=19	=19	=19	=19	=19	=19
2.C^>/	ro-	.	2.g/	ro-	.	2.E\	ro-	.	2.cc^>\	ro-	.
4C/	-go	.	4g/	-go	.	4E\	-go	.	4b-X\	-go	.
=20	=20	=20	=20	=20	=20	=20	=20	=20	=20	=20	=20
2FF/	te	.	2f/	Te	.	2C/	Te	.	2a/	Te	.
4r	.	.	4r	.	.	4r	.	.	4r	.	.
!	!	!LO:DY:a:rj	!LO:TX:i:a:t=Soli	!	!LO:DY:a:rj	!LO:TX:i:a:t=Solo	!	!LO:DY:a:rj	!LO:TX:i:a:t=Solo	!	!LO:DY:a:rj
4F\	O	p	4cc\	O	p	4A\	o	p	4ff\	O	p
=21	=21	=21	=21	=21	=21	=21	=21	=21	=21	=21	=21
!	!	!LO:HP:a	!	!	!LO:HP:a	!	!	!LO:HP:a	!	!	!LO:HP:a
(<4G\	bo-	<	2.cc\	bo-	<	2.B-X\	bo-	<	2.ee\	bo-	<
4C/)	.	.	.	.	.	.	.	.	.	.	.
.	.	[	.	.	.	.	.	.	.	.	.
!	!	!LO:HP:a	!	!	!	!	!	!	!	!	!
4G\	.	>	.	.	[	.	.	[	.	.	[
!	!	!	!	!	!	!	!	!LO:HP:a	!	!	!LO:HP:a
.	.	.	.	.	.	.	.	>	8qee/	.	>
!	!	!	!	!	!LO:HP:a	!	!	!	!	!	!
4G\	-ne	]]	4cc\	-ne	>	4B-\	-ne	.	8dd\L	-ne	.
.	.	.	.	.	.	.	.	]]	8ee\J	.	]]
=22	=22	=22	=22	=22	=22	=22	=22	=22	=22	=22	=22
(<4F\	De-	.	2cc\	De-	]]	(<4A^>\	De-	.	2ff^>\	De-	.
4A\)	.	.	.	.	.	4c\)	.	.	.	.	.
4F\	-us	.	4cc^>\	-us	.	4A\	-us	.	4cc\	-us	.
8r	.	.	8r	.	.	8r	.	.	8r	.	.
8F\	ex-	.	8cc\	ex-	.	8A\	ex-	.	8cc\	ex-	.
!LO:LB:g=original	!	!	!LO:LB:g=original	!	!	!	!	!	!	!	!
=23	=23	=23	=23	=23	=23	=23	=23	=23	=23	=23	=23
!	!	!LO:HP:a	!	!	!LO:HP:a	!	!	!LO:HP:a	!	!	!LO:HP:a
4G\	-au-	<	2.cc\	-au-	<	2.B-X\	-au-	<	(>4cc\	-au-	<
4E\	.	.	.	.	.	.	.	.	4ee\	.	[
.	.	[	.	.	.	.	.	.	.	.	.
!	!	!LO:HP:a	!	!	!LO:HP:a	!	!	!	!	!	!O:HP:a
4C/	.	>	.	.	[ >	.	.	[	4gg\)	.	>
!	!	!	!	!	!	!	!	!LO:HP:a	!	!	!
4E\	-di	]]	4cc\	-di	]]	4G\	-di	> ]]	4b-X\	-di	]
!	!	!	!	!	!	!LO:LB:g=original	!	!	!LO:LB:g=original	!	!
=24	=24	=24	=24	=24	=24	=24	=24	=24	=24	=24	=24
!	!	!LO:DY:a:rj	!	!	!LO:DY:a:rj	!	!	!LO:DY:a:rj	!	!	!LO:DY:a:rj
2E\	pre-	p	2cc\	pre-	p	2G\	pre-	p	2b-X\	pre-	p
4F\	-ces	.	4cc\	-ces	.	4A\	-ces	.	4a/	-ces	.
8r	.	.	8r	.	.	8r	.	.	8r	.	.
8F\	ex-	.	8cc\	ex-	.	8A\	ex-	.	8cc\	ex-	.
=25	=25	=25	=25	=25	=25	=25	=25	=25	=25	=25	=25
4.F\	-au-	.	4.cc\	-au-	.	4.A\	-au-	.	4.ff\	-au-	.
8AA/	-di	.	8cc\	-di	.	8A\	-di	.	8ff\	-di	.
!	!	!LO:HP:a	!	!	!	!	!	!	!	!	!LO:HP:a
4.AA/	pre-	<	4.cc#X\	pre-	.	4.G\	pre-	.	4.ff\	pre-	<
8AA/	-ces	.	8cc#\	-ces	.	8G\	-ces	.	8ee\	-ces	.
=26	=26	=26	=26	=26	=26	=26	=26	=26	=26	=26	=26
4.BB-X/	Do-	.	4.cc#X\	Do-	.	4.G\	Do-	.	4.ee\	Do-	.
8BB-/	-mi-	.	8dd\	-mi-	.	8F\	-mi-	.	8dd\	-mi-	.
4BB-/	-ne	.	4dd\	-ne	.	4F\	-ne	.	4dd\	-ne	.
4BBn/	et	.	4g#X/	et	.	4F\	et	.	4dd\	et	.
!	!	!	!LO:LB:g=original	!	!	!	!	!	!	!	!
=27	=27	=27	=27	=27	=27	=27	=27	=27	=27	=27	=27
4.C/	be-	.	4.a/	be-	.	4.F\	be-	.	4.dd\	be-	.
8C/	-ne-	.	8a/	-ne-	.	8F\	-ne-	.	8cc\	-ne-	.
4C/	-di-	.	4gn/	-di-	.	4E\	-di-	.	4cc\	-di-	.
4C/	-cas	.	4b-X\	-cas	.	4G\	-cas	.	4e/	-cas	.
!LO:LB:g=original	!	!	!	!	!	!	!	!	!LO:LB:g=original	!	!
=28	=28	=28	=28	=28	=28	=28	=28	=28	=28	=28	=28
4F\	me	.	4a/	me	.	4F\	me.	.	4f/	me	.
!LO:TX:i:a:t=Solo	!	!	!	!	!	!	!	!	!	!	!
4F\	O	.	4r	.	.	4r	.	.	4r	.	.
4A\	bo-	.	2r	.	.	4r	.	.	4r	.	.
!	!	!	!	!	!	!	!	!LO:DY:a	!	!	!LO:DY:a:rj
4F\	-ne	.	.	.	.	4F\	O	p	4f/	o	p
!	!	!	!	!	!	!LO:LB:g=original	!	!	!	!	!
=29	=29	=29	=29	=29	=29	=29	=29	=29	=29	=29	=29
!	!	!LO:DY:a:rj	!	!	!	!	!	!	!	!	!
(<2BB-X/	Bo-	p	4r	.	.	(<2F\	bo-	.	(>2dd\	bo-	.
.	.	.	4b-X\	O	.	.	.	.	.	.	.
4C/)	.	.	4g/	bo-	.	4E\)	.	.	4cc\)	.	.
4C/	-ne	.	4g/	-ne	.	4E\	-ne	.	4g/	-ne	.
=30	=30	=30	=30	=30	=30	=30	=30	=30	=30	=30	=30
4C/	De-	.	4cc\	De-	.	4E\	De-	.	4b-X\	De-	.
!LO:TX:i:a:t=Solo	!	!	!	!	!	!	!	!	!	!	!
!LO:TX:a:t=P:problem:napis "Solo" dopisany ołówkiem	!	!	!	!	!	!	!	!	!	!	!
8F\	-us	.	4cc\	-us	.	4F\	-us	.	4a/	-us	.
8F\	ex-	.	.	.	.	.	.	.	.	.	.
!LO:TX:a:t=P:problem:pierwotnie 8A. Przekreślona chorągiewka	!	!	!	!	!	!	!	!	!	!	!
4A\	-au-	.	2r	.	.	4r	.	.	4r	.	.
8F\	-di	.	.	.	.	4F\	ex	.	4a/	ex-	.
8F\	ex-	.	.	.	.	.	.	.	.	.	.
=31	=31	=31	=31	=31	=31	=31	=31	=31	=31	=31	=31
(<2BB-X/	-au-	.	4r	.	.	(<2F\	-au-	.	(>2dd\	-au-	.
.	.	.	4b-X\	ex-	.	.	.	.	.	.	.
4C/)	.	.	4g/	-au-	.	4E\)	.	.	4cc\)	.	.
!	!	!	!	!	!	!	!	!	!LO:TX:a:t=P:problem:nuta przekreślona. Dopisana ołówkiem inna: 4e	!	!
4C/	-di	.	4b-\	-di	.	4G\	-di	.	4b-X\	-di	.
=32	=32	=32	=32	=32	=32	=32	=32	=32	=32	=32	=32
!	!	!	!	!	!	!	!	!	!LO:TX:a:t=P:problem:nuta przekreślona. Dopisana ołówkiem inna: 2f	!	!
2FF/	me.	.	2a/	me	.	2F\	me	.	2a/	me	.
4r	.	.	4r	.	.	4r	.	.	4r	.	.
!	!	!	!	!	!	!LO:TX:a:i:t=Allegro. Tutti	!	!	!LO:TX:a:i:t=All&colon; Tutti	!	!
!	!	!	!	!	!LO:DY:a	!	!	!LO:DY:a:rj	!	!	!LO:DY:a:rj
4F\	Jam	ff	4a/	Jam	ff	4F\	Jam	ff	4a/	Jam	ff
!LO:LB:g=original	!	!	!LO:PB:g=original	!	!	!	!	!	!LO:LB:g=original	!	!
=33	=33	=33	=33	=33	=33	=33	=33	=33	=33	=33	=33
!LO:TX:i:a:t=Allegro Tutti.	!	!	!LO:TX:a:i:t=Allo Tutti	!	!LO:DY:a:rj	!	!	!	!	!	!
4.D\	coe-	.	4.a/	coe-	ff	4.F\	coe-	.	4.dd\	coe-	.
8D\	-li	.	8a/	-li	.	8F\	-li	.	8dd\	-li	.
4.D\	os-	.	4.dd\	os-	.	4.A\	os-	.	4.ff\	os-	.
8D\	-ti-	.	8dd\	-ti-	.	8A\	-ti-	.	8ff\	-ti-	.
!	!	!	!	!	!	!LO:LB:g=original	!	!	!	!	!
=34	=34	=34	=34	=34	=34	=34	=34	=34	=34	=34	=34
2G\	-um	.	2bn\	-um	.	2Bn\	-um	.	2dd\	-um	.
8r	.	.	8r	.	.	8r	.	.	8r	.	.
8F\	a-	.	8b\	a-	.	8G\	a-	.	8dd\	a-	.
8F\	-per-	.	8b\	-per-	.	8G\	-per-	.	8dd\	-per-	.
8F\	-tum	.	8b\	-tum	.	8G\	-tum	.	8dd\	-tum	.
=35	=35	=35	=35	=35	=35	=35	=35	=35	=35	=35	=35
2E\	est	.	2cc\	est	.	2G\	est	.	2gg\	est	.
4r	.	.	4r	.	.	4r	.	.	4r	.	.
4BBn/	et	.	4dd\	et	.	4G\	et	.	4ff\	et	.
=36	=36	=36	=36	=36	=36	=36	=36	=36	=36	=36	=36
4.C/	vi-	.	4.cc\	vi-	.	4.G\	vi-	.	4.ee\	vi-	.
8C/	-de-	.	8g/	-de-	.	8E\	-de-	.	8cc\	-de-	.
4C/	-o	.	4g/	-o	.	4E\	-o	.	4cc\	-o	.
4c\	te	.	4cc\	te	.	4c\	te	.	4ee\	te	.
!LO:LB:g=original	!	!	!LO:LB:g=original	!	!	!	!	!	!LO:LB:g=original	!	!
=37	=37	=37	=37	=37	=37	=37	=37	=37	=37	=37	=37
!LO:TX:a:i:t=Adagio	!	!	!LO:TX:a:i:t=Adagio	!	!	!LO:TX:a:i:t=Adagio	!	!	!LO:TX:a:i:t=Adagio	!	!
2A;<\	Rex	.	2dd;>\	Rex	.	2c;<\	Rex	.	2ff#X\	Rex	.
8r	.	.	8r	.	.	8r	.	.	8r	.	.
8A\	in	.	8dd\	in	.	8c\	in	.	8ff#\	in	.
8.A\	tu-	.	8.dd\	Tu-	.	8.c\	Tu-	.	8.ff#\	Tu-	.
16A\	-a	.	16dd\	-a	.	16c\	-a	.	16ff#\	-a	.
!	!	!	!	!	!	!LO:LB:g=original	!	!	!	!	!
=38	=38	=38	=38	=38	=38	=38	=38	=38	=38	=38	=38
!	!	!LO:DY:a:rj	!	!	!LO:DY:a:rj	!	!	!LO:DY:a:rj	!	!	!LO:DY:a:rj
4.G\	glo-	ff	4.dd;>\	glo-	ff	4.B;<\	glo-	ff	4.gg;>\	glo-	ff
8GG/	-ri-	.	8g/	-ri-	.	8G\	-ri-	.	8g/	-ri-	.
!	!	!	!	!	!	!LO:TX:a:i:t=Tempo Imo	!	!	!	!	!
4GG;>/	-a	.	4g;>/	-a.	.	4G\	-a.	.	4g;>/	-a	.
!LO:TX:a:i:t=Tempo Imo	!	!LO:DY:a:rj	!LO:TX:a:i:t=Tempo Imo	!	!	!LO:TX:a:t=P:problem:oznaczenie dynamiczne na pięciolinii przed nutą	!	!LO:DY:b:rj	!LO:TX:a:i:t=Tempo Imo	!	!
4C/	O	p	4cc\	O	.	4G\	O	p	4ee\	O	.
=39	=39	=39	=39	=39	=39	=39	=39	=39	=39	=39	=39
4.E\	De-	.	4.cc\	De-	.	4.G\	De-	.	4.cc\	De-	.
8E\	-us	.	8cc\	-us	.	8G\	-us	.	8cc\	-us	.
4D\	sal-	.	4b\	sal-	.	4G\	sal-	.	4dd\	sal-	.
4C/	-va	.	4cc\	-va	.	4G\	-va	.	4ee\	-va	.
=40	=40	=40	=40	=40	=40	=40	=40	=40	=40	=40	=40
2.F;>\	me	.	2.cc;>\	me,	.	2.A;>\	me	.	2.ff;>\	me,	.
!	!	!	!	!	!	!	!	!	!	!	!LO:DY:a
4C/	O	.	4cc\	o	.	4G\	o	.	4ee\	O	p
!	!	!	!LO:LB:g=original	!	!	!	!	!	!	!	!
=41	=41	=41	=41	=41	=41	=41	=41	=41	=41	=41	=41
4.F\	De-	.	4.cc\	De-	.	4.A\	De-	.	4.dd\	De-	.
8F\	-us	.	8cc\	-us	.	8A\	-us	.	8dd\	-us	.
4G\	sal-	.	4cc\	sal-	.	4G\	sal-	.	4ee\	sal-	.
4GG/	-va	.	4b\	-va	.	8G\L	-va	.	4dd\	-va	.
.	.	.	.	.	.	8F\J	.	.	.	.	.
=42	=42	=42	=42	=42	=42	=42	=42	=42	=42	=42	=42
!	!	!	!	!	!	!LO:TX:i:b:t=v. 20/5 1891 Tomasz Flasza	!	!	!	!	!
1C;>	me.	.	1g;>	me	.	1E	me.	.	1cc;>	me.	.
==	==	==	==	==	==	==	==	==	==	==	==
*-	*-	*-	*-	*-	*-	*-	*-	*-	*-	*-	*-
!!!system-decoration: [(s1,s2,s3,s4)]
!!!RDF**kern: > = above
!!!RDF**kern: < = below
!!!ENC: Tomasz Grochalski
!!!END: 2021-01-31
!!!EED: Mateusz Mrugas
!!!EST: 2021-02-09
